X:1
T:Pennsylvania Quickstep [1], The
M:6/8
L:1/8
R:March
B:Bayard - Dance to the Fiddle, March to the Fife (1981, No. 634)
K:D
(3A/B/c/|d>dd d>dd|d>dd d>cd|f>ed e>dc|d2 z z2 c/d/|
e>ee e>ee|e>ee e2 e|efe dcB|A2 z z2 F/G/|
A2A {Bc}B2A|(d3 d2)F/G/|A2 A {Bc}B2A|(e3 e2)F/G/|
A2A {c}B2A|f3 d2d|e>AA ABc|d2z z2||

